!!!COM:	Bach, Johann Sebastian
!!!OMV:	Oh God, how many heart pains
!!!OTL:	Oh God, how many heart pains
**kern	**fb	**kern	**kern	**kern	**kern	**kern	**kern	**kern	**kern	**kern
*part10	*part10	*part9	*part8	*part7	*part6	*part5	*part4	*part3	*part2	*part1
*staff10	*	*staff9	*staff8	*staff7	*staff6	*staff5	*staff4	*staff3	*staff2	*staff1
*I"Continuo	*	*I"Voice	*I"Voice	*I"Voice	*I"Voice	*I"Viola	*I"Violin	*I"Violin	*I"Oboe	*I"C Trumpet
*I'Cont.	*	*I'V	*I'V	*I'V	*I'V	*I'Vla.	*I'Vln.	*I'Vln.	*I'Ob.	*I'C Tpt.
*clefF4	*	*clefF4	*clefGv2	*clefG2	*clefG2	*clefC3	*clefG2	*clefG2	*clefG2	*clefG2
*Trd0c0	*	*	*	*	*	*	*	*	*	*
*k[f#]	*	*k[f#]	*k[f#]	*k[f#]	*k[f#]	*k[f#]	*k[f#]	*k[f#]	*k[f#]	*k[f#]
*M3/4	*	*M3/4	*M3/4	*M3/4	*M3/4	*M3/4	*M3/4	*M3/4	*M3/4	*M3/4
=	=	=	=	=	=	=	=	=	=	=
8GL	.	2.r	2.r	2.r	2.r	8dL	8bL	8r	8r	2.r
8GGJ	.	.	.	.	.	8ddJ	8gJ	16bLL	16bLL	.
.	.	.	.	.	.	.	.	16ccJJ	16ccJJ	.
8r	.	.	.	.	.	8r	8r	16ddLL	16ddLL	.
.	.	.	.	.	.	.	.	16gg	16gg	.
8F#	6	.	.	.	.	8d	8a	16dd	16dd	.
.	.	.	.	.	.	.	.	16ccJJ	16ccJJ	.
8GL	.	.	.	.	.	8dL	8gL	16bLL	16bLL	.
.	.	.	.	.	.	.	.	16dd	16dd	.
8DJ	6	.	.	.	.	8dJ	8f#J	16b	16b	.
.	.	.	.	.	.	.	.	16aJJ	16aJJ	.
=3	=3	=3	=3	=3	=3	=3	=3	=3	=3	=3
8EL	.	2.r	2.r	2.r	2.r	8BL	8gL	16gLL	16gLL	2.r
.	.	.	.	.	.	.	.	16e	16e	.
8EEJ	.	.	.	.	.	8bJ	8eJ	16g	16g	.
.	.	.	.	.	.	.	.	16aJJ	16aJJ	.
8r	.	.	.	.	.	8r	8r	16bLL	16bLL	.
.	.	.	.	.	.	.	.	16ee	16ee	.
8D#X	6	.	.	.	.	8B	8f#	16b	16b	.
.	.	.	.	.	.	.	.	16aJJ	16aJJ	.
8EL	.	.	.	.	.	8BL	8eL	16gLL	16gLL	.
.	.	.	.	.	.	.	.	16b	16b	.
8BBJ	6	.	.	.	.	8BJ	8dJ	16g	16g	.
.	.	.	.	.	.	.	.	16f#JJ	16f#JJ	.
=4	=4	=4	=4	=4	=4	=4	=4	=4	=4	=4
8CL	.	2.r	2.r	2.r	2.r	8GL	8eL	16eLL	16eLL	2.r
.	.	.	.	.	.	.	.	16c	16c	.
8CCJ	.	.	.	.	.	8gJ	8cJ	16e	16e	.
.	.	.	.	.	.	.	.	16f#JJ	16f#JJ	.
8r	.	.	.	.	.	8r	8r	16gLL	16gLL	.
.	.	.	.	.	.	.	.	16cc	16cc	.
8BB	6	.	.	.	.	8G	8d	16g	16g	.
.	.	.	.	.	.	.	.	16f#JJ	16f#JJ	.
8CL	.	.	.	.	.	8GL	8cL	16eLL	16eLL	.
.	.	.	.	.	.	.	.	16ee	16ee	.
8AAJ	7	.	.	.	.	8AJ	8eJ	16cc	16cc	.
.	.	.	.	.	.	.	.	16bJJ	16bJJ	.
=5	=5	=5	=5	=5	=5	=5	=5	=5	=5	=5
!!pagebreak:original
8DL	7	2.r	2.r	2.r	2.r	8AL	8f#L	16ccLL	16ccLL	2.r
.	.	.	.	.	.	.	.	16ff#	16ff#	.
8DDJ	.	.	.	.	.	8AJ	8f#J	16cc	16cc	.
.	.	.	.	.	.	.	.	16bJJ	16bJJ	.
8EEL	6	.	.	.	.	8eL	8gL	16ccLL	16ccLL	.
.	.	.	.	.	.	.	.	16gg	16gg	.
8EJ	.	.	.	.	.	8eJ	8gJ	16cc	16cc	.
.	.	.	.	.	.	.	.	16bJJ	16bJJ	.
8F#L	6 5	.	.	.	.	8dL	8aL	16ccLL	16ccLL	.
.	.	.	.	.	.	.	.	16aa	16aa	.
8FF#J	.	.	.	.	.	8dJ	8aJ	16b	16b	.
.	.	.	.	.	.	.	.	16aJJ	16aJJ	.
=6	=6	=6	=6	=6	=6	=6	=6	=6	=6	=6
8GGL	.	2.r	2.r	2.r	2.r	8dL	8gL	16bLL	16bLL	2.r
.	.	.	.	.	.	.	.	16g	16g	.
8AAJ	6	.	.	.	.	8dJ	8f#J	16b	16b	.
.	.	.	.	.	.	.	.	16ccJJ	16ccJJ	.
8BBL	6	.	.	.	.	8dL	8gL	16ddLL	16ddLL	.
.	.	.	.	.	.	.	.	16g	16g	.
8CJ	6 5	.	.	.	.	8cJ	8gJ	16dd	16dd	.
.	.	.	.	.	.	.	.	16eeJJ	16eeJJ	.
8DL	.	.	.	.	.	8AL	8dL	16f#LL	16f#LL	.
.	.	.	.	.	.	.	.	16d	16d	.
8EJ	.	.	.	.	.	8AJ	8c#XJ	16f#	16f#	.
.	.	.	.	.	.	.	.	16gJJ	16gJJ	.
=7	=7	=7	=7	=7	=7	=7	=7	=7	=7	=7
8F#L	6	2.r	2.r	2.r	2.r	8AL	8dL	16aLL	16aLL	2.r
.	.	.	.	.	.	.	.	16d	16d	.
8EJ	6	.	.	.	.	8eJ	8gJ	16a	16a	.
.	.	.	.	.	.	.	.	16bJJ	16bJJ	.
8DL	7	.	.	.	.	8AL	8f#L	16ccLL	16ccLL	.
.	.	.	.	.	.	.	.	16a	16a	.
8GJ	.	.	.	.	.	8GJ	8gJ	16b	16b	.
.	.	.	.	.	.	.	.	16ccJJ	16ccJJ	.
8dL	.	.	.	.	.	8AL	8f#L	8.aL	8.aL	.
8DJ	.	.	.	.	.	8cJ	8dJ	.	.	.
.	.	.	.	.	.	.	.	16gJk	16gJk	.
=8	=8	=8	=8	=8	=8	=8	=8	=8	=8	=8
16GGLL	.	4r	4r	4r	4r	4B	4d	4g	4g	4r
16G	.	.	.	.	.	.	.	.	.	.
16F#	.	.	.	.	.	.	.	.	.	.
16EJJ	.	.	.	.	.	.	.	.	.	.
16DLL	6 4	4r	4r	4r	4r	8r	8r	4r	4r	4r
16G	.	.	.	.	.	.	.	.	.	.
16D	.	.	.	.	.	16BLL	8d	.	.	.
16CJJ	.	.	.	.	.	16AJJ	.	.	.	.
16BBLL	6	8GL	8BL	4d	4g	8BL	8gL	4r	4r	4g
16D	.	.	.	.	.	.	.	.	.	.
16BB	.	8AJ	8cJ	.	.	8cJ	8f#J	.	.	.
16AAJJ	.	.	.	.	.	.	.	.	.	.
=9	=9	=9	=9	=9	=9	=9	=9	=9	=9	=9
!!pagebreak:original
8GGL	.	8BL	8dL	4.d	2g	8dL	4g	8r	8r	2g
16GL	.	8AJ	8cJ	.	.	8cJ	.	16bLL	16bLL	.
16AJJ	.	.	.	.	.	.	.	16ccJJ	16ccJJ	.
8BL	.	8BL	8BL	.	.	8BL	8r	16ddLL	16ddLL	.
.	.	.	.	.	.	.	.	16gg	16gg	.
8cJ	.	8cJ	8AJ	8e	.	8AJ	8e	16dd	16dd	.
.	.	.	.	.	.	.	.	16ccJJ	16ccJJ	.
8dL	6	8dL	4B	4d	4f#	[4B	8dL	16bLL	16bLL	4f#
.	.	.	.	.	.	.	.	16dd	16dd	.
8DJ	.	8DJ	.	.	.	.	8cJ	16b	16b	.
.	.	.	.	.	.	.	.	16aJJ	16aJJ	.
=10	=10	=10	=10	=10	=10	=10	=10	=10	=10	=10
8EL	7	8EL	8BL	8dL	2e	8BL]	4.B	16gLL	16gLL	2e
.	.	.	.	.	.	.	.	16e	16e	.
8F#J	5	8F#J	8AJ	8cJ	.	8AJ	.	16g	16g	.
.	.	.	.	.	.	.	.	16aJJ	16aJJ	.
8GL	6 3	8GL	8GL	8BL	.	8GL	.	16bLL	16bLL	.
.	.	.	.	.	.	.	.	16ee	16ee	.
8AJ	.	8AJ	8F#J	8cJ	.	8F#J	8c	16b	16b	.
.	.	.	.	.	.	.	.	16aJJ	16aJJ	.
8BL	.	8BL	8GL	4d	4d	8GL	[4d	16gLL	16gLL	4d
.	.	.	.	.	.	.	.	16b	16b	.
8BBJ	.	8BBJ	8AJ	.	.	8AJ	.	16g	16g	.
.	.	.	.	.	.	.	.	16f#JJ	16f#JJ	.
=11	=11	=11	=11	=11	=11	=11	=11	=11	=11	=11
8EL	7	8EL	8BL	8dL	2g	8BL	8dL]	16eLL	16eLL	2g
.	.	.	.	.	.	.	.	16c	16c	.
8DJ	7	8DJ	16cL	16cL	.	16cL	16cL	16e	16e	.
.	6	.	16dJJ	16BJJ	.	16dJJ	16BJJ	16f#JJ	16f#JJ	.
8CL	.	8CL	8GL	8eL	.	8GL	8eL	16gLL	16gLL	.
.	.	.	.	.	.	.	.	16cc	16cc	.
8BBJ	.	8BBJ	16AL	8gJ	.	16AL	8gJ	16g	16g	.
.	.	.	16BJJ	.	.	16BJJ	.	16f#JJ	16f#JJ	.
8AAL	6	8AAL	8cL	4f#	4a	8cL	4f#	16eLL	16eLL	4a
.	.	.	.	.	.	.	.	16aa	16aa	.
8DJ	.	8DJ	8dJ	.	.	8dJ	.	16dd	16dd	.
.	.	.	.	.	.	.	.	16ccJJ	16ccJJ	.
=12	=12	=12	=12	=12	=12	=12	=12	=12	=12	=12
8GL	.	2GG	2d	2g	2b	8dL	4.g	16bLL	16bLL	2b
.	.	.	.	.	.	.	.	16a	16a	.
8GGJ	.	.	.	.	.	8ddJ	.	16b	16b	.
.	.	.	.	.	.	.	.	16ccJJ	16ccJJ	.
8r	.	.	.	.	.	8r	.	16ddLL	16ddLL	.
.	.	.	.	.	.	.	.	16gg	16gg	.
8G	.	.	.	.	.	8d	8a	16dd	16dd	.
.	.	.	.	.	.	.	.	16ccJJ	16ccJJ	.
8AL	.	8GL	8dL	8gL	4b	8dL	8gL	16bLL	16bLL	4b
.	.	.	.	.	.	.	.	16dd	16dd	.
8D#XJ	6	8F#J	8f#J	8aJ	.	8f#J	8f#J	16b	16b	.
.	.	.	.	.	.	.	.	16aJJ	16aJJ	.
=13	=13	=13	=13	=13	=13	=13	=13	=13	=13	=13
!!pagebreak:original
8EL	.	4.E	4.e	4.g	2b	8eL	8gL	16gLL	16gLL	2b
.	.	.	.	.	.	.	.	16e	16e	.
8EEJ	.	.	.	.	.	8BJ	8eJ	16g	16g	.
.	.	.	.	.	.	.	.	16aJJ	16aJJ	.
8r	.	.	.	.	.	8r	8r	16bLL	16bLL	.
.	.	.	.	.	.	.	.	16ee	16ee	.
8D#X	6	8D#X	8f#	8f#	.	8f#	8f#	16b	16b	.
.	.	.	.	.	.	.	.	16aJJ	16aJJ	.
8EL	.	8EL	8eL	8gL	4b	8BL	8eL	16gLL	16gLL	4b
.	.	.	.	.	.	.	.	16b	16b	.
8BBJ	.	8BBJ	8gJ	8dJ	.	8dJ	8dJ	16g	16g	.
.	.	.	.	.	.	.	.	16f#JJ	16f#JJ	.
=14	=14	=14	=14	=14	=14	=14	=14	=14	=14	=14
8CL	7 5	8CL	4G	2e	4b	8GL	8eL	16eLL	16eLL	4b
.	.	.	.	.	.	.	.	16c	16c	.
8CCJ	.	8BBJ	.	.	.	8cJ	8cJ	16e	16e	.
.	.	.	.	.	.	.	.	16f#JJ	16f#JJ	.
8r	.	8AAL	4.A	.	4cc	8r	8r	16gLL	16gLL	4cc
.	.	.	.	.	.	.	.	16cc	16cc	.
8AA	7	8BBJ	.	.	.	8A	8e	16f#	16f#	.
.	.	.	.	.	.	.	.	16eJJ	16eJJ	.
8DL	.	8CL	.	4f#	4a	8AL	8f#L	16f#LL	16f#LL	4a
.	.	.	.	.	.	.	.	16aa	16aa	.
8BBJ	.	8DJ	8B	.	.	8BJ	8f#J	16dd	16dd	.
.	.	.	.	.	.	.	.	16ccJJ	16ccJJ	.
=15	=15	=15	=15	=15	=15	=15	=15	=15	=15	=15
8EL	.	8EL	8BL	16gLL	8gL	8BL	16gLL	8b	8b	8gL
.	.	.	.	16f#	.	.	16f#	.	.	.
8CJ	6 5	8CJ	8eJ	16g	8aJ	8eJ	16g	8r	8r	8aJ
.	.	.	.	16eJJ	.	.	16eJJ	.	.	.
8DL	.	8DL	4d	4.f#	2a	8r	4.f#	4r	4r	2a
8CJ	.	8CJ	.	.	.	8d	.	.	.	.
8DL	.	4D	4c	.	.	8dL	.	4r	4r	.
8DDJ	.	.	.	8d	.	8dJ	8a	.	.	.
=16	=16	=16	=16	=16	=16	=16	=16	=16	=16	=16
8GL	.	2GG	2B	2d	2g	8dL	8bL	8r	8r	2g
8GGJ	.	.	.	.	.	8ddJ	8gJ	16bLL	16bLL	.
.	.	.	.	.	.	.	.	16ccJJ	16ccJJ	.
8r	.	.	.	.	.	8r	8r	16ddLL	16ddLL	.
.	.	.	.	.	.	.	.	16gg	16gg	.
8F#	6	.	.	.	.	8d	8a	16dd	16dd	.
.	.	.	.	.	.	.	.	16ccJJ	16ccJJ	.
8GL	.	4r	4r	4r	4r	8dL	8gL	16bLL	16bLL	4r
.	.	.	.	.	.	.	.	16dd	16dd	.
8DJ	6	.	.	.	.	8dJ	8f#J	16b	16b	.
.	.	.	.	.	.	.	.	16aJJ	16aJJ	.
=17	=17	=17	=17	=17	=17	=17	=17	=17	=17	=17
!!pagebreak:original
8EL	.	2.r	2.r	2.r	2.r	8BL	8gL	16gLL	16gLL	2.r
.	.	.	.	.	.	.	.	16e	16e	.
8EEJ	.	.	.	.	.	8bJ	8eJ	16g	16g	.
.	.	.	.	.	.	.	.	16aJJ	16aJJ	.
8r	.	.	.	.	.	8r	8r	16bLL	16bLL	.
.	.	.	.	.	.	.	.	16ee	16ee	.
8D#X	6	.	.	.	.	8B	8f#	16b	16b	.
.	.	.	.	.	.	.	.	16aJJ	16aJJ	.
8EL	.	.	.	.	.	8BL	8eL	16gLL	16gLL	.
.	.	.	.	.	.	.	.	16b	16b	.
8BBJ	6	.	.	.	.	8BJ	8dJ	16g	16g	.
.	.	.	.	.	.	.	.	16f#JJ	16f#JJ	.
=18	=18	=18	=18	=18	=18	=18	=18	=18	=18	=18
8CL	.	2.r	2.r	2.r	2.r	8GL	8eL	16eLL	16eLL	2.r
.	.	.	.	.	.	.	.	16c	16c	.
8CCJ	.	.	.	.	.	8gJ	8cJ	16e	16e	.
.	.	.	.	.	.	.	.	16f#JJ	16f#JJ	.
8r	.	.	.	.	.	8r	8r	16gLL	16gLL	.
.	.	.	.	.	.	.	.	16cc	16cc	.
8BB	6	.	.	.	.	8G	8d	16g	16g	.
.	.	.	.	.	.	.	.	16f#JJ	16f#JJ	.
8CL	.	.	.	.	.	8GL	8cL	16eLL	16eLL	.
.	.	.	.	.	.	.	.	16ee	16ee	.
8AAJ	7	.	.	.	.	8AJ	8eJ	16cc	16cc	.
.	.	.	.	.	.	.	.	16bJJ	16bJJ	.
=19	=19	=19	=19	=19	=19	=19	=19	=19	=19	=19
8DL	7	2.r	2.r	2.r	2.r	8AL	8f#L	16ccLL	16ccLL	2.r
.	.	.	.	.	.	.	.	16ff#	16ff#	.
8DDJ	.	.	.	.	.	8AJ	8f#J	16cc	16cc	.
.	.	.	.	.	.	.	.	16bJJ	16bJJ	.
8EEL	6	.	.	.	.	8eL	8gL	16ccLL	16ccLL	.
.	.	.	.	.	.	.	.	16gg	16gg	.
8EJ	.	.	.	.	.	8eJ	8gJ	16cc	16cc	.
.	.	.	.	.	.	.	.	16bJJ	16bJJ	.
8F#L	6 5	.	.	.	.	8dL	8aL	16ccLL	16ccLL	.
.	.	.	.	.	.	.	.	16aa	16aa	.
8FF#J	.	.	.	.	.	8dJ	8aJ	16b	16b	.
.	.	.	.	.	.	.	.	16aJJ	16aJJ	.
=20	=20	=20	=20	=20	=20	=20	=20	=20	=20	=20
!!pagebreak:original
8GGL	.	2.r	2.r	2.r	2.r	8dL	8gL	16bLL	16bLL	2.r
.	.	.	.	.	.	.	.	16g	16g	.
8AAJ	6	.	.	.	.	8dJ	8f#J	16b	16b	.
.	.	.	.	.	.	.	.	16ccJJ	16ccJJ	.
8BBL	6	.	.	.	.	8dL	8gL	16ddLL	16ddLL	.
.	.	.	.	.	.	.	.	16g	16g	.
8CJ	6 5	.	.	.	.	8cJ	8gJ	16dd	16dd	.
.	.	.	.	.	.	.	.	16eeJJ	16eeJJ	.
8DL	.	.	.	.	.	8AL	8dL	16f#LL	16f#LL	.
.	.	.	.	.	.	.	.	16d	16d	.
8EJ	.	.	.	.	.	8AJ	8c#XJ	16f#	16f#	.
.	.	.	.	.	.	.	.	16gJJ	16gJJ	.
=21	=21	=21	=21	=21	=21	=21	=21	=21	=21	=21
8F#L	6	2.r	2.r	2.r	2.r	8AL	8dL	16aLL	16aLL	2.r
.	.	.	.	.	.	.	.	16d	16d	.
8EJ	6	.	.	.	.	8eJ	8gJ	16a	16a	.
.	.	.	.	.	.	.	.	16bJJ	16bJJ	.
8DL	7	.	.	.	.	8AL	8f#L	16ccLL	16ccLL	.
.	.	.	.	.	.	.	.	16a	16a	.
8GJ	.	.	.	.	.	8GJ	8gJ	16b	16b	.
.	.	.	.	.	.	.	.	16ccJJ	16ccJJ	.
8dL	.	.	.	.	.	8AL	8f#L	8.aL	8.aL	.
8DJ	.	.	.	.	.	8cJ	8dJ	.	.	.
.	.	.	.	.	.	.	.	16gJk	16gJk	.
=22	=22	=22	=22	=22	=22	=22	=22	=22	=22	=22
16GGLL	.	4r	4r	4r	4r	4B	4d	4g	4g	4r
16G	.	.	.	.	.	.	.	.	.	.
16F#	.	.	.	.	.	.	.	.	.	.
16EJJ	.	.	.	.	.	.	.	.	.	.
16DLL	6 4	4r	4r	4r	4r	8r	8r	4r	4r	4r
16G	.	.	.	.	.	.	.	.	.	.
16D	.	.	.	.	.	16BLL	8d	.	.	.
16CJJ	.	.	.	.	.	16AJJ	.	.	.	.
16BBLL	6	8GL	8BL	4d	4g	8BL	8gL	4r	4r	4g
16D	.	.	.	.	.	.	.	.	.	.
16BB	.	8AJ	8cJ	.	.	8cJ	8f#J	.	.	.
16AAJJ	.	.	.	.	.	.	.	.	.	.
=23	=23	=23	=23	=23	=23	=23	=23	=23	=23	=23
8GGL	.	8BL	8dL	4.d	2g	8dL	4g	8r	8r	2g
16GL	.	8AJ	8cJ	.	.	8cJ	.	16bLL	16bLL	.
16AJJ	.	.	.	.	.	.	.	16ccJJ	16ccJJ	.
8BL	.	8BL	8BL	.	.	8BL	8r	16ddLL	16ddLL	.
.	.	.	.	.	.	.	.	16gg	16gg	.
8cJ	.	8cJ	8AJ	8e	.	8AJ	8e	16dd	16dd	.
.	.	.	.	.	.	.	.	16ccJJ	16ccJJ	.
8dL	6	8dL	4B	4d	4f#	[4B	8dL	16bLL	16bLL	4f#
.	.	.	.	.	.	.	.	16dd	16dd	.
8DJ	.	8DJ	.	.	.	.	8cJ	16b	16b	.
.	.	.	.	.	.	.	.	16aJJ	16aJJ	.
=24	=24	=24	=24	=24	=24	=24	=24	=24	=24	=24
!!pagebreak:original
8EL	7	8EL	8BL	8dL	2e	8BL]	4.B	16gLL	16gLL	2e
.	.	.	.	.	.	.	.	16e	16e	.
8F#J	5	8F#J	8AJ	8cJ	.	8AJ	.	16g	16g	.
.	.	.	.	.	.	.	.	16aJJ	16aJJ	.
8GL	6 3	8GL	8GL	8BL	.	8GL	.	16bLL	16bLL	.
.	.	.	.	.	.	.	.	16ee	16ee	.
8AJ	.	8AJ	8F#J	8cJ	.	8F#J	8c	16b	16b	.
.	.	.	.	.	.	.	.	16aJJ	16aJJ	.
8BL	.	8BL	8GL	4d	4d	8GL	[4d	16gLL	16gLL	4d
.	.	.	.	.	.	.	.	16b	16b	.
8BBJ	.	8BBJ	8AJ	.	.	8AJ	.	16g	16g	.
.	.	.	.	.	.	.	.	16f#JJ	16f#JJ	.
=25	=25	=25	=25	=25	=25	=25	=25	=25	=25	=25
8EL	7	8EL	8BL	8dL	2g	8BL	8dL]	16eLL	16eLL	2g
.	.	.	.	.	.	.	.	16c	16c	.
8DJ	7	8DJ	16cL	16cL	.	16cL	16cL	16e	16e	.
.	6	.	16dJJ	16BJJ	.	16dJJ	16BJJ	16f#JJ	16f#JJ	.
8CL	.	8CL	8GL	8eL	.	8GL	8eL	16gLL	16gLL	.
.	.	.	.	.	.	.	.	16cc	16cc	.
8BBJ	.	8BBJ	16AL	8gJ	.	16AL	8gJ	16f#	16f#	.
.	.	.	16BJJ	.	.	16BJJ	.	16eJJ	16eJJ	.
8AAL	6	8AAL	8cL	4f#	4a	8cL	4f#	16f#LL	16f#LL	4a
.	.	.	.	.	.	.	.	16aa	16aa	.
8DJ	.	8DJ	8dJ	.	.	8dJ	.	16dd	16dd	.
.	.	.	.	.	.	.	.	16ccJJ	16ccJJ	.
=26	=26	=26	=26	=26	=26	=26	=26	=26	=26	=26
8GL	.	2GG	2d	2g	2b	8dL	4.g	16bLL	16bLL	2b
.	.	.	.	.	.	.	.	16a	16a	.
8GGJ	.	.	.	.	.	8ddJ	.	16b	16b	.
.	.	.	.	.	.	.	.	16ccJJ	16ccJJ	.
8r	.	.	.	.	.	8r	.	16ddLL	16ddLL	.
.	.	.	.	.	.	.	.	16gg	16gg	.
8F#	.	.	.	.	.	8d	8a	16dd	16dd	.
.	.	.	.	.	.	.	.	16ccJJ	16ccJJ	.
8GL	.	8GL	8dL	8gL	4b	8dL	8gL	16bLL	16bLL	4b
.	.	.	.	.	.	.	.	16dd	16dd	.
8D#XJ	6	8F#J	8f#J	8aJ	.	8f#J	8f#J	16b	16b	.
.	.	.	.	.	.	.	.	16aJJ	16aJJ	.
=27	=27	=27	=27	=27	=27	=27	=27	=27	=27	=27
!!pagebreak:original
8EL	.	4.E	4.e	4.g	2b	8eL	8gL	16gLL	16gLL	2b
.	.	.	.	.	.	.	.	16e	16e	.
8EEJ	.	.	.	.	.	8BJ	8eJ	16g	16g	.
.	.	.	.	.	.	.	.	16aJJ	16aJJ	.
8r	.	.	.	.	.	8r	8r	16bLL	16bLL	.
.	.	.	.	.	.	.	.	16ee	16ee	.
8D#X	6	8D#X	8f#	8f#	.	8f#	8f#	16b	16b	.
.	.	.	.	.	.	.	.	16aJJ	16aJJ	.
8EL	.	8EL	8eL	8gL	4b	8BL	8eL	16gLL	16gLL	4b
.	.	.	.	.	.	.	.	16b	16b	.
8BBJ	.	8BBJ	8gJ	8dJ	.	8dJ	8dJ	16g	16g	.
.	.	.	.	.	.	.	.	16f#JJ	16f#JJ	.
=28	=28	=28	=28	=28	=28	=28	=28	=28	=28	=28
8CL	7 5	8CL	4G	2e	4b	8GL	8eL	16eLL	16eLL	4b
.	.	.	.	.	.	.	.	16c	16c	.
8CCJ	.	8BBJ	.	.	.	8cJ	8cJ	16e	16e	.
.	.	.	.	.	.	.	.	16f#JJ	16f#JJ	.
8r	.	8AAL	4.A	.	4cc	8r	8r	16gLL	16gLL	4cc
.	.	.	.	.	.	.	.	16cc	16cc	.
8AA	7	8BBJ	.	.	.	8A	8e	16f#	16f#	.
.	.	.	.	.	.	.	.	16eJJ	16eJJ	.
8DL	.	8CL	.	4f#	4a	8AL	8f#L	16f#LL	16f#LL	4a
.	.	.	.	.	.	.	.	16aa	16aa	.
8BBJ	.	8DJ	8B	.	.	8BJ	8f#J	16dd	16dd	.
.	.	.	.	.	.	.	.	16ccJJ	16ccJJ	.
=29	=29	=29	=29	=29	=29	=29	=29	=29	=29	=29
8EL	.	8EL	8BL	16gLL	8gL	8BL	16gLL	8b	8b	8gL
.	.	.	.	16f#	.	.	16f#	.	.	.
8CJ	6 5	8CJ	8eJ	16g	8aJ	8eJ	16g	8r	8r	8aJ
.	.	.	.	16eJJ	.	.	16eJJ	.	.	.
8DL	.	8DL	4d	4.f#	2a	8r	4.f#	4r	4r	2a
8CJ	.	8CJ	.	.	.	8d	.	.	.	.
8DL	.	4D	4c	.	.	8dL	.	4r	4r	.
8DDJ	.	.	.	8d	.	8dJ	8a	.	.	.
=30	=30	=30	=30	=30	=30	=30	=30	=30	=30	=30
8GL	.	2GG	2B	2d	2g	8dL	8bL	8r	8r	2g
8GGJ	.	.	.	.	.	8ddJ	8gJ	16bLL	16bLL	.
.	.	.	.	.	.	.	.	16ccJJ	16ccJJ	.
8r	.	.	.	.	.	8r	8r	16ddLL	16ddLL	.
.	.	.	.	.	.	.	.	16gg	16gg	.
8F#	6	.	.	.	.	8d	8a	16dd	16dd	.
.	.	.	.	.	.	.	.	16ccJJ	16ccJJ	.
8GL	.	4r	4r	4r	4r	8dL	8gL	16bLL	16bLL	4r
.	.	.	.	.	.	.	.	16dd	16dd	.
8DJ	6	.	.	.	.	8dJ	8f#J	16b	16b	.
.	.	.	.	.	.	.	.	16aJJ	16aJJ	.
=31	=31	=31	=31	=31	=31	=31	=31	=31	=31	=31
!!pagebreak:original
8EL	.	4r	4r	4r	4r	8BL	8gL	16gLL	16gLL	4r
.	.	.	.	.	.	.	.	16e	16e	.
8EEJ	.	.	.	.	.	8bJ	8eJ	16g	16g	.
.	.	.	.	.	.	.	.	16aJJ	16aJJ	.
8r	.	4r	4r	4r	4r	8r	8r	16bLL	16bLL	4r
.	.	.	.	.	.	.	.	16ee	16ee	.
8D#X	6	.	.	.	.	8B	8f#	16b	16b	.
.	.	.	.	.	.	.	.	16aJJ	16aJJ	.
8EL	.	8EL	4B	8eL	4g	8BL	8eL	16gLL	16gLL	4g
.	.	.	.	.	.	.	.	16b	16b	.
8BBJ	6	8BBJ	.	8dJ	.	8BJ	8dJ	16g	16g	.
.	.	.	.	.	.	.	.	16fnJJ	16fnJJ	.
=32	=32	=32	=32	=32	=32	=32	=32	=32	=32	=32
8CL	.	8CL	4G	2e	2g	8GL	8eL	16eLL	16eLL	2g
.	.	.	.	.	.	.	.	16c	16c	.
8DJ	.	8DJ	.	.	.	8gJ	8cJ	16e	16e	.
.	.	.	.	.	.	.	.	16f#JJ	16f#JJ	.
8EL	6	8EL	4c	.	.	8r	8r	16gLL	16gLL	.
.	.	.	.	.	.	.	.	16cc	16cc	.
8F#J	.	8F#J	.	.	.	8c	8e	16g	16g	.
.	.	.	.	.	.	.	.	16f#JJ	16f#JJ	.
8G#XL	6 5	8G#XL	8BL	4e	4b	8BL	8eL	16eLL	16eLL	4b
.	.	.	.	.	.	.	.	16ee	16ee	.
8EJ	.	8EJ	8G#XJ	.	.	8G#XJ	8eJ	16cc	16cc	.
.	.	.	.	.	.	.	.	16bJJ	16bJJ	.
=33	=33	=33	=33	=33	=33	=33	=33	=33	=33	=33
8AL	.	8AL	2c	4e	2a	4c	8eL	16ccLL	16ccLL	2a
.	.	.	.	.	.	.	.	16ee	16ee	.
8GJ	.	8GnJ	.	.	.	.	8eeJ	16a	16a	.
.	.	.	.	.	.	.	.	16gJJ	16gJJ	.
8F#L	#6\	8F#L	.	8d#XL	.	8r	8r	16aLL	16aLL	.
.	.	.	.	.	.	.	.	16cc	16cc	.
8EJ	6 4	8EJ	.	8eJ	.	8c	8a	16f#	16f#	.
.	.	.	.	.	.	.	.	16eJJ	16eJJ	.
8D#XL	6	8D#XL	4B	4f#	4b	8BL	8f#L	16f#LL	16f#LL	4b
.	.	.	.	.	.	.	.	16b	16b	.
8BBJ	.	8BBJ	.	.	.	8BJ	8f#J	16e	16e	.
.	.	.	.	.	.	.	.	16d#XJJ	16d#XJJ	.
=34	=34	=34	=34	=34	=34	=34	=34	=34	=34	=34
8EL	.	8EL	4B	2e	4g	8BL	8eL	8e	8e	4g
8GJ	.	8GJ	.	.	.	8BJ	8eJ	8r	8r	.
8AL	6 5	8AL	4c	.	2f#	8r	8r	4r	4r	2f#
8F#J	.	8F#J	.	.	.	8c	8e	.	.	.
8BL	.	8BL	8BL	4d#X	.	8BL	8d#XL	4r	4r	.
8BBJ	.	8BBJ	8AJ	.	.	8AJ	8d#J	.	.	.
=35	=35	=35	=35	=35	=35	=35	=35	=35	=35	=35
!!pagebreak:original
8EL	.	2E	2G	2e	2e	8GL	8BL	8r	8r	2e
8EEJ	.	.	.	.	.	8BJ	8eJ	16gLL	16gLL	.
.	.	.	.	.	.	.	.	16aJJ	16aJJ	.
8r	.	.	.	.	.	8r	8r	16bLL	16bLL	.
.	.	.	.	.	.	.	.	16ee	16ee	.
8E	.	.	.	.	.	8G	8e	16b	16b	.
.	.	.	.	.	.	.	.	16aJJ	16aJJ	.
8DL	.	4D	4G	4e	4e	8EL	8eL	16gLL	16gLL	4e
.	.	.	.	.	.	.	.	16b	16b	.
8BBJ	6 4	.	.	.	.	8GJ	8eJ	16g	16g	.
.	.	.	.	.	.	.	.	16f#JJ	16f#JJ	.
=36	=36	=36	=36	=36	=36	=36	=36	=36	=36	=36
8C#XL	6	8C#XL	4A	8eL	4a	4A	8eL	8e	8e	4a
8BBJ	.	8BBJ	.	8dnJ	.	.	8dJ	8r	8r	.
8C#L	5	8C#L	2A	8eL	4g	8r	8eL	4r	4r	4g
8AAJ	.	8AAJ	.	8c#XJ	.	8A	8c#XJ	.	.	.
8DL	.	8DL	.	[4d	4f#	8AL	[4d	4r	4r	4f#
8F#J	.	8F#J	.	.	.	8AJ	.	.	.	.
=37	=37	=37	=37	=37	=37	=37	=37	=37	=37	=37
8BL	6	8BL	8GL	4d]	4g	8GL	8dL]	2.r	2.r	4g
8AJ	.	8AJ	8AJ	.	.	8AJ	8dJ	.	.	.
8GL	7 5	8GL	4.B	4d	4f#	4.B	8dL	.	.	4f#
8F#J	.	8F#J	.	.	.	.	8dJ	.	.	.
8GL	6 5	8GL	.	8dL	4e	.	8dL	.	.	4e
8AJ	#	8AJ	16ALL	8c#XJ	.	16ALL	8c#XJ	.	.	.
.	.	.	16GJJ	.	.	16GJJ	.	.	.	.
=38	=38	=38	=38	=38	=38	=38	=38	=38	=38	=38
8dL	.	2D	2F#	2A	2d	8F#L	8dL	8r	8r	2d
8DJ	.	.	.	.	.	8aJ	8ddJ	16ff#LL	16ff#LL	.
.	.	.	.	.	.	.	.	16ggJJ	16ggJJ	.
8r	.	.	.	.	.	8r	8r	16aaLL	16aaLL	.
.	.	.	.	.	.	.	.	16ddd	16ddd	.
8c#X	6	.	.	.	.	8a	8ee	16aa	16aa	.
.	.	.	.	.	.	.	.	16ggJJ	16ggJJ	.
8dL	.	4r	4r	4r	4r	8aL	8ddL	16ff#LL	16ff#LL	4r
.	.	.	.	.	.	.	.	16aa	16aa	.
8AJ	6 #	.	.	.	.	8aJ	8cc#XJ	16ff#	16ff#	.
.	.	.	.	.	.	.	.	16eeJJ	16eeJJ	.
=39	=39	=39	=39	=39	=39	=39	=39	=39	=39	=39
!!pagebreak:original
8BL	.	4r	4r	4r	4r	8f#L	8ddL	16ddLL	16ddLL	4r
.	.	.	.	.	.	.	.	16b	16b	.
8BBJ	.	.	.	.	.	8f#J	8bJ	16dd	16dd	.
.	.	.	.	.	.	.	.	16eeJJ	16eeJJ	.
8r	.	4r	4r	4r	4r	8r	8r	16ff#LL	16ff#LL	4r
.	.	.	.	.	.	.	.	16bb	16bb	.
8A#X	6	.	.	.	.	8f#	8cc#X	16ff#	16ff#	.
.	.	.	.	.	.	.	.	16eeJJ	16eeJJ	.
8BL	5	4BB	4F#	4B	4d	8f#L	8bL	16ddLL	16ddLL	4d
.	.	.	.	.	.	.	.	16ff#	16ff#	.
8BBJ	.	.	.	.	.	8f#J	8aJ	16dd	16dd	.
.	.	.	.	.	.	.	.	16ccJJ	16ccJJ	.
=40	=40	=40	=40	=40	=40	=40	=40	=40	=40	=40
8EL	.	4E	4G	8BL	2g	8gL	4g	16bLL	16bLL	2g
.	.	.	.	.	.	.	.	16g	16g	.
8DJ	.	.	.	8gJ	.	8eJ	.	16b	16b	.
.	.	.	.	.	.	.	.	16ccJJ	16ccJJ	.
8EL	2	4F#	4A	8f#L	.	8dL	8f#L	16ddLL	16ddLL	.
.	.	.	.	.	.	.	.	16gg	16gg	.
8F#J	5	.	.	8eJ	.	8cJ	8eJ	16dd	16dd	.
.	.	.	.	.	.	.	.	16ccJJ	16ccJJ	.
8GL	5	4G	4B	4d	4g	8BL	8dL	16bLL	16bLL	4g
.	.	.	.	.	.	.	.	16dd	16dd	.
8BBJ	.	.	.	.	.	8dJ	8gJ	16b	16b	.
.	.	.	.	.	.	.	.	16aJJ	16aJJ	.
=41	=41	=41	=41	=41	=41	=41	=41	=41	=41	=41
8C#XL	6 5	4C#X	2A	4e	4a	8eL	8gL	8g	8g	4a
8CC#XJ	.	.	.	.	.	8eeJ	8gJ	8r	8r	.
8r	.	4D#X	.	4f#	4b	8r	8r	4r	4r	4b
8D#X	6	.	.	.	.	8B	8f#	.	.	.
8EL	6	4E	8GL	4g	4ccn	8GL	8eL	4r	4r	4ccn
8AJ	.	.	8AJ	.	.	8AJ	8eJ	.	.	.
=42	=42	=42	=42	=42	=42	=42	=42	=42	=42	=42
8D#XL	6	4D#X	4B	4f#	4b	8BL	8aL	2.r	2.r	4b
8DD#XJ	.	.	.	.	.	8bJ	8f#J	.	.	.
8r	.	4C#X	4e	4e	4a	8r	8r	.	.	4a
8C#X	.	.	.	.	.	8e	8e	.	.	.
8D#L	.	4D#	4B	4f#	4b	8BL	8f#L	.	.	4b
8BBJ	.	.	.	.	.	8BJ	8d#XJ	.	.	.
=43	=43	=43	=43	=43	=43	=43	=43	=43	=43	=43
!!pagebreak:original
8EL	.	2E	2B	2e	2g	8gL	8BL	8r	8r	2g
8EEJ	.	.	.	.	.	8eJ	8gJ	16gLL	16gLL	.
.	.	.	.	.	.	.	.	16aJJ	16aJJ	.
8r	.	.	.	.	.	8r	8r	16bLL	16bLL	.
.	.	.	.	.	.	.	.	16ee	16ee	.
8D#X	6	.	.	.	.	8B	8f#	16b	16b	.
.	.	.	.	.	.	.	.	16aJJ	16aJJ	.
8EL	.	4r	4r	4r	4r	8BL	8eL	16gLL	16gLL	4r
.	.	.	.	.	.	.	.	16b	16b	.
8BBJ	.	.	.	.	.	8BJ	8dJ	16g	16g	.
.	.	.	.	.	.	.	.	16f#JJ	16f#JJ	.
=44	=44	=44	=44	=44	=44	=44	=44	=44	=44	=44
8CL	.	4r	4r	4r	4r	8GL	8eL	16eLL	16eLL	4r
.	.	.	.	.	.	.	.	16c	16c	.
8CCJ	.	.	.	.	.	8gJ	8cJ	16e	16e	.
.	.	.	.	.	.	.	.	16f#JJ	16f#JJ	.
8r	.	4r	4r	4r	4r	8r	8r	16gLL	16gLL	4r
.	.	.	.	.	.	.	.	16cc	16cc	.
8B	6	.	.	.	.	8G	8d	16g	16g	.
.	.	.	.	.	.	.	.	16f#JJ	16f#JJ	.
8cL	.	8cL	8eL	4e	4g	8GL	8cL	16eLL	16eLL	4g
.	.	.	.	.	.	.	.	16g	16g	.
8GJ	6	8GJ	8dJ	.	.	8GJ	8BJ	16e	16e	.
.	.	.	.	.	.	.	.	16dJJ	16dJJ	.
=45	=45	=45	=45	=45	=45	=45	=45	=45	=45	=45
8AL	.	4.A	2c	2e	2cc	8EL	8AL	16cLL	16cLL	2cc
.	.	.	.	.	.	.	.	16A	16e	.
8AAJ	.	.	.	.	.	8AJ	8eJ	16c	16c	.
.	.	.	.	.	.	.	.	16dJJ	16dJJ	.
8r	.	.	.	.	.	8r	8r	16eLL	16eLL	.
.	.	.	.	.	.	.	.	16a	16a	.
8G#X	6	8G#X	.	.	.	8B	8e	16e	16e	.
.	.	.	.	.	.	.	.	16dJJ	16dJJ	.
8AL	.	8AL	4c	4e	4cc	8cL	8aL	16cLL	16cLL	4cc
.	.	.	.	.	.	.	.	16e	16e	.
8EJ	6 4	8EJ	.	.	.	8eJ	8g#XJ	16c	16a	.
.	.	.	.	.	.	.	.	16BJJ	16bJJ	.
=46	=46	=46	=46	=46	=46	=46	=46	=46	=46	=46
8FnL	6 4 3	4.Fn	8AL	4d	4b	8dL	8aL	8A	8cc	4b
8EJ	#r7	.	8G#XJ	.	.	8G#XJ	8BJ	8r	8r	.
8FL	5	.	4A	4c	4a	8r	8r	4r	4r	4a
8CJ	6	8C	.	.	.	8A	8c	.	.	.
8DL	6 5 n	8DL	4d	8fnL	4b	8AL	8fnL	4r	4r	4b
8EJ	#	8EJ	.	8eJ	.	8G#J	8eJ	.	.	.
=47	=47	=47	=47	=47	=47	=47	=47	=47	=47	=47
!!pagebreak:original
8AL	.	2AA	2c	2e	2a	8cL	8eL	8r	8r	2a
8AAJ	.	.	.	.	.	8eJ	8aJ	16ccLL	16ccLL	.
.	.	.	.	.	.	.	.	16ddJJ	16ddJJ	.
8r	.	.	.	.	.	8r	8r	16eeLL	16eeLL	.
.	.	.	.	.	.	.	.	16aa	16aa	.
8G#X	6	.	.	.	.	8e	8b	16ee	16ee	.
.	.	.	.	.	.	.	.	16ddJJ	16ddJJ	.
8AL	.	4r	4r	4r	4r	8eL	8aL	16ccLL	16ccLL	4r
.	.	.	.	.	.	.	.	16ee	16ee	.
8EJ	5	.	.	.	.	8eJ	8gJ	16cc	16cc	.
.	.	.	.	.	.	.	.	16bJJ	16bJJ	.
=48	=48	=48	=48	=48	=48	=48	=48	=48	=48	=48
8F#L	7	4r	4r	4r	4r	8eL	8aL	16aLL	16aLL	4r
.	.	.	.	.	.	.	.	16f#	16f#	.
8FF#J	#6\	.	.	.	.	8d#XJ	8f#J	16a	16a	.
.	.	.	.	.	.	.	.	16bJJ	16bJJ	.
8r	.	4r	4r	4r	4r	8r	8r	16ccLL	16ccLL	4r
.	.	.	.	.	.	.	.	16ff#	16ff#	.
8E	6	.	.	.	.	8e	8g	16cc	16cc	.
.	.	.	.	.	.	.	.	16bJJ	16bJJ	.
8F#L	#6\	8F#L	4c	8d#XL	4a	8d#L	8f#L	16aLL	16aLL	4a
.	.	.	.	.	.	.	.	16cc	16cc	.
8C#XJ	6	8EJ	.	8eJ	.	8eJ	8eJ	16a	16a	.
.	.	.	.	.	.	.	.	16gJJ	16gJJ	.
=49	=49	=49	=49	=49	=49	=49	=49	=49	=49	=49
8D#XL	6 5	4D#X	8F#L	4f#	2b	8BL	8f#L	8f#	8f#	2b
8BBJ	.	.	8BJ	.	.	8f#J	8d#XJ	8r	8r	.
8EL	#	8EL	4.G#X	4e	.	8r	8r	4r	4r	.
8DnJ	.	8DnJ	.	.	.	8G#X	8fn	.	.	.
8EL	7	8CL	.	4e	4b	8G#L	8eL	4r	4r	4b
8EEJ	.	8BBJ	8A	.	.	8G#J	8dnJ	.	.	.
=50	=50	=50	=50	=50	=50	=50	=50	=50	=50	=50
8AL	.	4AA	2A	2e	2cc	8AL	8cL	2.r	2.r	2cc
8AAJ	.	.	.	.	.	8cJ	8eJ	.	.	.
8r	.	4A	.	.	.	8r	8r	.	.	.
8G#X	.	.	.	.	.	8B	8e	.	.	.
8AL	.	4E	8AL	4e	4cc	8AL	8eL	.	.	4cc
8EJ	6	.	8GnJ	.	.	8GJ	8eJ	.	.	.
=51	=51	=51	=51	=51	=51	=51	=51	=51	=51	=51
!!pagebreak:original
8FnL	6	4Fn	4A	8dL	2.dd	8AL	8dL	2.r	2.r	2.dd
8FFnJ	.	.	.	8eJ	.	8aJ	8eJ	.	.	.
8r	.	2BB	8dL	2fn	.	8dL	8fnL	.	.	.
8F	6 5	.	8BJ	.	.	8BJ	8dJ	.	.	.
8GL	.	.	4G	.	.	8GL	8BL	.	.	.
8DJ	6 n	.	.	.	.	8BJ	8dJ	.	.	.
=52	=52	=52	=52	=52	=52	=52	=52	=52	=52	=52
8EL	6	2C	2G	2e	2g	8GL	8eL	8r	8r	2g
8CJ	.	.	.	.	.	8gJ	8ccJ	16eeLL	16eeLL	.
.	.	.	.	.	.	.	.	16ffnJJ	16ffnJJ	.
8r	.	.	.	.	.	8r	8r	16ggLL	16ggLL	.
.	.	.	.	.	.	.	.	16ccc	16ccc	.
8B	6	.	.	.	.	8g	8dd	16gg	16gg	.
.	.	.	.	.	.	.	.	16ffJJ	16ffJJ	.
8cL	.	4r	4r	4r	4r	8gL	8ccL	16eeLL	16eeLL	4r
.	.	.	.	.	.	.	.	16gg	16gg	.
8GJ	6	.	.	.	.	8gJ	8bJ	16ee	16ee	.
.	.	.	.	.	.	.	.	16ddJJ	16ddJJ	.
=53	=53	=53	=53	=53	=53	=53	=53	=53	=53	=53
8AL	.	2.r	2.r	2.r	2.r	8eL	8ccL	16ccLL	16ccLL	2.r
.	.	.	.	.	.	.	.	16a	16a	.
8AAJ	.	.	.	.	.	8eeJ	8aJ	16cc	16cc	.
.	.	.	.	.	.	.	.	16ddJJ	16ddJJ	.
8r	.	.	.	.	.	8r	8r	16eeLL	16eeLL	.
.	.	.	.	.	.	.	.	16aa	16aa	.
8G#X	6	.	.	.	.	8e	8b	16ee	16ee	.
.	.	.	.	.	.	.	.	16ddJJ	16ddJJ	.
8AL	.	.	.	.	.	8eL	8aL	16ccLL	16ccLL	.
.	.	.	.	.	.	.	.	16ee	16ee	.
8EJ	6	.	.	.	.	8eJ	8gJ	16cc	16cc	.
.	.	.	.	.	.	.	.	16bJJ	16bJJ	.
=54	=54	=54	=54	=54	=54	=54	=54	=54	=54	=54
8F#L	7	4r	4r	4r	4r	8eL	8aL	16aLL	16aLL	4r
.	.	.	.	.	.	.	.	16f#	16f#	.
8FF#J	#6\	.	.	.	.	8d#XJ	8f#J	16a	16a	.
.	.	.	.	.	.	.	.	16bJJ	16bJJ	.
8r	.	4r	4r	4r	4r	8r	8r	16ccLL	16ccLL	4r
.	.	.	.	.	.	.	.	16ff#	16ff#	.
8E	.	.	.	.	.	8e	8g	16cc	16cc	.
.	.	.	.	.	.	.	.	16bJJ	16bJJ	.
8D#XL	6	8BBL	4F#	8d#XL	4b	8f#L	8f#L	16aLL	16aLL	4b
.	.	.	.	.	.	.	.	16ff#	16ff#	.
8C#XJ	7	8C#XJ	.	8eJ	.	8gJ	8eJ	16a	16a	.
.	.	.	.	.	.	.	.	16gJJ	16gJJ	.
=55	=55	=55	=55	=55	=55	=55	=55	=55	=55	=55
!!pagebreak:original
8D#XL	6 5	8D#XL	8BL	2.f#	4.a	8f#L	8f#L	8f#	8f#	4.a
8DD#XJ	.	8EJ	8c#XJ	.	.	8bJ	8d#XJ	8r	8r	.
8r	.	4F#	2d#X	.	.	8r	8r	4r	4r	.
8C#X	.	.	.	.	8g	8e	8e	.	.	8g
8D#L	6 5	4BB	.	.	4f#	8BL	8f#L	4r	4r	4f#
8BBJ	.	.	.	.	.	8BJ	8d#J	.	.	.
=56	=56	=56	=56	=56	=56	=56	=56	=56	=56	=56
8EL	.	4E	8BL	8eL	4g	8BL	8eL	2.r	2.r	4g
8EEJ	.	.	16c#XL	8f#J	.	16c#XL	8f#J	.	.	.
.	.	.	16dnJJ	.	.	16dJJ	.	.	.	.
8r	.	4C#X	8eL	4g#X	2e	8eL	8g#XL	.	.	2e
8C#X	#5|	.	8eJ	.	.	8g#XJ	8eJ	.	.	.
8F#L	7 #	4F#	8dL	4a#X	.	8f#L	8a#XL	.	.	.
8FF#J	.	.	8c#J	.	.	8f#J	8c#XJ	.	.	.
=57	=57	=57	=57	=57	=57	=57	=57	=57	=57	=57
8BL	.	2BB	2B	2b	2d	8f#L	8dL	8r	8r	2d
8BBJ	.	.	.	.	.	8f#J	8bJ	16ddLL	16ddLL	.
.	.	.	.	.	.	.	.	16eeJJ	16eeJJ	.
8r	.	.	.	.	.	8r	8r	16ff#LL	16ff#LL	.
.	.	.	.	.	.	.	.	16bb	16bb	.
8A#X	6	.	.	.	.	8f#	8cc#X	16ff#	16ff#	.
.	.	.	.	.	.	.	.	16eeJJ	16eeJJ	.
8BL	.	4r	4r	4r	4r	8f#L	8bL	16ddLL	16ddLL	4r
.	.	.	.	.	.	.	.	16ff#	16ff#	.
8F#J	6	.	.	.	.	8f#J	8aJ	16dd	16dd	.
.	.	.	.	.	.	.	.	16cc#XJJ	16cc#XJJ	.
=58	=58	=58	=58	=58	=58	=58	=58	=58	=58	=58
8GL	5	4r	4r	4r	4r	8dL	8bL	16bLL	16bLL	4r
.	.	.	.	.	.	.	.	16g	16g	.
8GGJ	.	.	.	.	.	8ddJ	8gJ	16b	16b	.
.	.	.	.	.	.	.	.	16ccJJ	16ccJJ	.
8r	.	4r	4r	4r	4r	8r	8r	16ddLL	16ddLL	4r
.	.	.	.	.	.	.	.	16gg	16gg	.
8F#	6	.	.	.	.	8d	8a	16dd	16dd	.
.	.	.	.	.	.	.	.	16ccJJ	16ccJJ	.
8GL	.	8GL	4B	8dL	4d	8dL	8gL	16bLL	16bLL	4d
.	.	.	.	.	.	.	.	16dd	16dd	.
8DJ	6	8DJ	.	8f#J	.	8dJ	8f#J	16b	16b	.
.	.	.	.	.	.	.	.	16aJJ	16aJJ	.
=59	=59	=59	=59	=59	=59	=59	=59	=59	=59	=59
!!pagebreak:original
8EL	.	2E	2B	2e	2g	8BL	8eL	16gLL	16gLL	2g
.	.	.	.	.	.	.	.	16e	16e	.
8EEJ	.	.	.	.	.	8eJ	8BJ	16g	16g	.
.	.	.	.	.	.	.	.	16aJJ	16aJJ	.
8r	.	.	.	.	.	8r	8r	16bLL	16bLL	.
.	.	.	.	.	.	.	.	16ee	16ee	.
16GLL	6	.	.	.	.	8B	8e	16b	16b	.
16AJJ	.	.	.	.	.	.	.	16aJJ	16aJJ	.
8BL	6 5	4BB	8BL	4d	4f#	8BL	8dL	16gLL	16gLL	4f#
.	.	.	.	.	.	.	.	16b	16b	.
8BBJ	.	.	8AJ	.	.	8AJ	8dJ	16g	16g	.
.	.	.	.	.	.	.	.	16f#JJ	16f#JJ	.
=60	=60	=60	=60	=60	=60	=60	=60	=60	=60	=60
8CL	9	2C	2G	4d	2e	8GL	8dL	8e	8e	2e
8CCJ	.	.	.	.	.	8cJ	8GJ	8r	8r	.
8r	.	.	.	4c	.	8r	8r	4r	4r	.
16ELL	6	.	.	.	.	8G	8c	.	.	.
16F#JJ	.	.	.	.	.	.	.	.	.	.
8GL	.	4G	4G	8BL	4d	8GL	8BL	4r	4r	4d
8GGJ	.	.	.	8cJ	.	8GJ	8cJ	.	.	.
=61	=61	=61	=61	=61	=61	=61	=61	=61	=61	=61
8F#L	6	4F#	4.A	4.d	4a	8AL	8dL	2.r	2.r	4a
8DJ	.	.	.	.	.	8dJ	8f#J	.	.	.
8GL	9	2G	.	.	2b	8r	8r	.	.	2b
16GGL	8	.	16GLL	16eLL	.	16GLL	8d	.	.	.
16AAJJ	.	.	16F#JJ	16f#JJ	.	16F#JJ	.	.	.	.
8BBL	6	.	8GL	8eL	.	8GL	8gL	.	.	.
8GGJ	.	.	16F#L	16dL	.	8EJ	8c#XJ	.	.	.
.	.	.	16EJJ	16c#XJJ	.	.	.	.	.	.
=62	=62	=62	=62	=62	=62	=62	=62	=62	=62	=62
8DL	.	2D	2F#	2d	2a	8F#L	8dL	8r	8r	2a
8DDJ	.	.	.	.	.	8f#J	8aJ	16ddLL	16ddLL	.
.	.	.	.	.	.	.	.	16eeJJ	16eeJJ	.
8r	.	.	.	.	.	8r	8r	16ff#LL	16ff#LL	.
.	.	.	.	.	.	.	.	16aa	16aa	.
8D	.	.	.	.	.	8d	8dd	16ff#	16ff#	.
.	.	.	.	.	.	.	.	16eeJJ	16eeJJ	.
8GL	.	8GL	4G	4d	4b	8BL	8ddL	16ddLL	16ddLL	4b
.	.	.	.	.	.	.	.	16gg	16gg	.
8FnJ	.	8FnJ	.	.	.	8dJ	8gJ	16cc	16cc	.
.	.	.	.	.	.	.	.	16bJJ	16bJJ	.
=63	=63	=63	=63	=63	=63	=63	=63	=63	=63	=63
!!pagebreak:original
8EL	6	4E	4G	2.g	4cc	8eL	8gL	16ccLL	16ccLL	4cc
.	.	.	.	.	.	.	.	16gg	16gg	.
8EEJ	.	.	.	.	.	8cJ	8GJ	16b	16b	.
.	.	.	.	.	.	.	.	16aJJ	16aJJ	.
8r	.	4D	4d	.	4b	8r	8r	16bLL	16bLL	4b
.	.	.	.	.	.	.	.	16gg	16gg	.
8D	6 4	.	.	.	.	8d	8g	16a	16a	.
.	.	.	.	.	.	.	.	16gJJ	16gJJ	.
8CL	6 5	4C	4e	.	4a	8eL	8gL	16aLL	16aLL	4a
.	.	.	.	.	.	.	.	16gg	16gg	.
8AAJ	6	.	.	.	.	8cJ	8gJ	16g	16g	.
.	.	.	.	.	.	.	.	16f#JJ	16f#JJ	.
=64	=64	=64	=64	=64	=64	=64	=64	=64	=64	=64
8BBL	6	8.BBL	8dL	8gL	8gL	8dL	8gL	16gLL	16gLL	16gLL
.	.	.	.	.	.	.	.	16a	16a	16f#
8AAJ	6	.	8cJ	8f#J	8aJ	8cJ	8f#J	16b	16b	16g
.	.	16AAJk	.	.	.	.	.	16ccJJ	16ccJJ	16aJJ
16GGLL	.	16GGLL	8BL	4g	4b	8BL	8gL	16ddLL	16ddLL	4b
16AA	.	16AA	.	.	.	.	.	16g	16g	.
16BB	.	16BB	8GJ	.	.	16AL	8gJ	16dd	16dd	.
16CJJ	.	16CJJ	.	.	.	16GJJ	.	16eeJJ	16eeJJ	.
8DL	.	8DL	8dL	4f#	4a	8dL	8f#L	8.aL	8.aL	4a
8DDJ	.	8DJ	8cJ	.	.	8dJ	8f#J	.	.	.
.	.	.	.	.	.	.	.	16gJk	16gJk	.
=65	=65	=65	=65	=65	=65	=65	=65	=65	=65	=65
8GL	.	2GG	2B	2d	2g	8dL	8bL	8gL	8gL	2g
8GGJ	.	.	.	.	.	8ddJ	8gJ	16bL	16bL	.
.	.	.	.	.	.	.	.	16ccJJ	16ccJJ	.
8r	.	.	.	.	.	8r	8r	16ddLL	16ddLL	.
.	.	.	.	.	.	.	.	16gg	16gg	.
8F#	6	.	.	.	.	8d	8a	16dd	16dd	.
.	.	.	.	.	.	.	.	16ccJJ	16ccJJ	.
8GL	.	4r	4r	4r	4r	8dL	8gL	16bLL	16bLL	4r
.	.	.	.	.	.	.	.	16dd	16dd	.
8DJ	6	.	.	.	.	8dJ	8f#J	16b	16b	.
.	.	.	.	.	.	.	.	16aJJ	16aJJ	.
=66	=66	=66	=66	=66	=66	=66	=66	=66	=66	=66
8EL	.	2.r	2.r	2.r	2.r	8BL	8gL	16gLL	16gLL	2.r
.	.	.	.	.	.	.	.	16e	16e	.
8EEJ	.	.	.	.	.	8bJ	8eJ	16g	16g	.
.	.	.	.	.	.	.	.	16aJJ	16aJJ	.
8r	.	.	.	.	.	8r	8r	16bLL	16bLL	.
.	.	.	.	.	.	.	.	16ee	16ee	.
8D#X	6	.	.	.	.	8B	8f#	16b	16b	.
.	.	.	.	.	.	.	.	16aJJ	16aJJ	.
8EL	.	.	.	.	.	8BL	8eL	16gLL	16gLL	.
.	.	.	.	.	.	.	.	16b	16b	.
8BBJ	6	.	.	.	.	8BJ	8dJ	16g	16g	.
.	.	.	.	.	.	.	.	16f#JJ	16f#JJ	.
=67	=67	=67	=67	=67	=67	=67	=67	=67	=67	=67
!!pagebreak:original
8CL	.	2.r	2.r	2.r	2.r	8GL	8eL	16eLL	16eLL	2.r
.	.	.	.	.	.	.	.	16c	16c	.
8CCJ	.	.	.	.	.	8gJ	8cJ	16e	16e	.
.	.	.	.	.	.	.	.	16f#JJ	16f#JJ	.
8r	.	.	.	.	.	8r	8r	16gLL	16gLL	.
.	.	.	.	.	.	.	.	16cc	16cc	.
8BB	6	.	.	.	.	8G	8d	16g	16g	.
.	.	.	.	.	.	.	.	16f#JJ	16f#JJ	.
8CL	.	.	.	.	.	8GL	8cL	16eLL	16eLL	.
.	.	.	.	.	.	.	.	16ee	16ee	.
8AAJ	7	.	.	.	.	8GJ	8eJ	16cc	16cc	.
.	.	.	.	.	.	.	.	16bJJ	16bJJ	.
=68	=68	=68	=68	=68	=68	=68	=68	=68	=68	=68
8DL	7	2.r	2.r	2.r	2.r	8AL	8f#L	16ccLL	16ccLL	2.r
.	.	.	.	.	.	.	.	16ff#	16ff#	.
8DDJ	.	.	.	.	.	8AJ	8f#J	16cc	16cc	.
.	.	.	.	.	.	.	.	16bJJ	16bJJ	.
8EEL	6	.	.	.	.	8eL	8gL	16ccLL	16ccLL	.
.	.	.	.	.	.	.	.	16gg	16gg	.
8EJ	.	.	.	.	.	8eJ	8gJ	16cc	16cc	.
.	.	.	.	.	.	.	.	16bJJ	16bJJ	.
8F#L	6 5	.	.	.	.	8dL	8aL	16ccLL	16ccLL	.
.	.	.	.	.	.	.	.	16aa	16aa	.
8FF#J	.	.	.	.	.	8dJ	8aJ	16b	16b	.
.	.	.	.	.	.	.	.	16aJJ	16aJJ	.
=69	=69	=69	=69	=69	=69	=69	=69	=69	=69	=69
8GGL	.	2.r	2.r	2.r	2.r	8dL	8gL	16bLL	16bLL	2.r
.	.	.	.	.	.	.	.	16g	16g	.
8AAJ	6	.	.	.	.	8dJ	8f#J	16b	16b	.
.	.	.	.	.	.	.	.	16ccJJ	16ccJJ	.
8BBL	6	.	.	.	.	8dL	8gL	16ddLL	16ddLL	.
.	.	.	.	.	.	.	.	16g	16g	.
8CJ	6 5	.	.	.	.	8cJ	8gJ	16dd	16dd	.
.	.	.	.	.	.	.	.	16eeJJ	16eeJJ	.
8DL	.	.	.	.	.	8AL	8dL	16f#LL	16f#LL	.
.	.	.	.	.	.	.	.	16d	16d	.
8EJ	.	.	.	.	.	8AJ	8c#XJ	16f#	16f#	.
.	.	.	.	.	.	.	.	16gJJ	16gJJ	.
=70	=70	=70	=70	=70	=70	=70	=70	=70	=70	=70
8F#L	6	2.r	2.r	2.r	2.r	8AL	8dL	16aLL	16aLL	2.r
.	.	.	.	.	.	.	.	16d	16d	.
8EJ	6	.	.	.	.	8eJ	8gJ	16a	16a	.
.	.	.	.	.	.	.	.	16bJJ	16bJJ	.
8DL	7	.	.	.	.	8AL	8f#L	16ccLL	16ccLL	.
.	.	.	.	.	.	.	.	16a	16a	.
8GJ	.	.	.	.	.	8GJ	8gJ	16b	16b	.
.	.	.	.	.	.	.	.	16ccJJ	16ccJJ	.
8dL	.	.	.	.	.	8AL	8f#L	8.aL	8.aL	.
8DJ	.	.	.	.	.	8cJ	8dJ	.	.	.
.	.	.	.	.	.	.	.	16gJk	16gJk	.
=71	=71	=71	=71	=71	=71	=71	=71	=71	=71	=71
!!pagebreak:original
4GG;	.	2.r;	2.r;	2.r;	2.r;	4B;	4d;	4g;	4g;	2.r;
4r	.	.	.	.	.	4r	4r	4r	4r	.
4r	.	.	.	.	.	4r	4r	4r	4r	.
=||	=||	=||	=||	=||	=||	=||	=||	=||	=||	=||
*-	*-	*-	*-	*-	*-	*-	*-	*-	*-	*-
!!!system-decoration: s1,s2,s3,s4,s5,s6,s7,s8,s9,s10
